contributed-vectors/att_cloud.svg

<svg width="192" height="192" version="1.1" viewBox="0 0 192 192" xmlns="http://www.w3.org/2000/svg">
 <style type="text/css">.st0{fill:#FFFFFF;}</style>
 <path d="m72 32a48 48 0 0 0-48 48 48 48 0 0 0 0.07031 1.9609c-9.8187 8.0567-16.07 20.289-16.07 34.039 0 24.376 19.624 44 44 44h88c24.376 0 44-19.624 44-44 0-15.658-8.1218-29.323-20.375-37.117a40 40 0 0 0-39.625-34.883 40 40 0 0 0-16.602 3.6641 48 48 0 0 0-35.398-15.664z" style="fill:#9abeff;paint-order:stroke fill markers;stroke-width:4"/>
 <path d="m36 72c-4.6254 0-8.3988 0.65512-11.523 1.6172a48 48 0 0 0-0.47656 6.3828 48 48 0 0 0 0.07031 1.9609c-0.32823 0.2692-0.61734 0.58084-0.9375 0.8594 2.4314-1.4019 6.3306-2.8203 12.867-2.8203 8.9333 0 13.614 3.3432 16.492 6.6328 0.41396 0.47312 0.69354 0.91252 1.0234 1.3672h-5.7187c-2.1033 0-3.7969 1.6936-3.7969 3.7969v0.40624c0 2.1033 1.6936 3.7969 3.7969 3.7969h16.406c2.1033 0 3.7969-1.6936 3.7969-3.7969v-16.406c0-2.1033-1.6936-3.7969-3.7969-3.7969h-0.40625c-2.1033 0-3.7969 1.6936-3.7969 3.7969v7.5938c-0.4809-0.67556-0.89625-1.3424-1.4922-2.0234-4.1216-4.7104-11.441-9.3672-22.508-9.3672z" style="color-rendering:auto;color:#000000;dominant-baseline:auto;fill:#728dbe;font-feature-settings:normal;font-variant-alternates:normal;font-variant-caps:normal;font-variant-ligatures:normal;font-variant-numeric:normal;font-variant-position:normal;image-rendering:auto;isolation:auto;mix-blend-mode:normal;shape-padding:0;shape-rendering:auto;solid-color:#000000;text-decoration-color:#000000;text-decoration-line:none;text-decoration-style:solid;text-indent:0;text-orientation:mixed;text-transform:none;white-space:normal"/>
</svg>

<svg xmlns="http://www.w3.org/2000/svg" width="192" height="192"><style>.st0{fill:#fff}</style><path d="M72 32a48 48 0 0 0-48 48 48 48 0 0 0 .07 1.96C14.252 90.019 8 102.25 8 116c0 24.376 19.624 44 44 44h88c24.376 0 44-19.624 44-44 0-15.658-8.121-29.323-20.375-37.117A40 40 0 0 0 124 44a40 40 0 0 0-16.602 3.664A48 48 0 0 0 72 32z" style="fill:#9abeff;paint-order:stroke fill markers;stroke-width:4"/><path d="M36 72c-4.625 0-8.399.655-11.523 1.617A48 48 0 0 0 24 80a48 48 0 0 0 .07 1.96c-.327.27-.617.582-.937.86C25.565 81.418 29.463 80 36 80c8.934 0 13.614 3.343 16.492 6.633.414.473.694.912 1.024 1.367h-5.719A3.789 3.789 0 0 0 44 91.797v.406A3.789 3.789 0 0 0 47.797 96h16.406A3.789 3.789 0 0 0 68 92.203V75.797A3.789 3.789 0 0 0 64.203 72h-.406A3.789 3.789 0 0 0 60 75.797v7.594c-.481-.676-.896-1.342-1.492-2.023C54.386 76.658 47.067 72 36 72z" style="color-rendering:auto;color:#000;dominant-baseline:auto;fill:#728dbe;font-feature-settings:normal;font-variant-alternates:normal;font-variant-caps:normal;font-variant-ligatures:normal;font-variant-numeric:normal;font-variant-position:normal;image-rendering:auto;isolation:auto;mix-blend-mode:normal;shape-padding:0;shape-rendering:auto;solid-color:#000;text-decoration-color:#000;text-decoration-line:none;text-decoration-style:solid;text-indent:0;text-orientation:mixed;text-transform:none;white-space:normal"/></svg>
